X: 269
T: Give Us A Drink Of Water
R: slip jig
M: 9/8
L: 1/8
K: Gmaj
D |: GBd gdc BAG | BdB cAA A2D | GBd gdc BAG |1 BcA AGF G2D :|2 BcA AGF G2d
| {a}gfg efg fed | g2g efg afd | g2g bag fed | efg afd g2d |
gfg efg fed | {a}gfg efg a2g | bag agf ged | efg afd g3 ||
